_site/images/homepage/logos/github.svg

<svg fill="none" height="83" viewBox="0 0 113 83" width="113" xmlns="http://www.w3.org/2000/svg"><g fill="#222123"><path d="m84.0006 41.5485c0 1.0086-.0562 2.0041-.1664 2.9844-.0122.1093-.0243.2196-.0375.3289-.0694.5551-.1565 1.1059-.259 1.6501-.0198.1082-.0408.2153-.0629.3213-1.9088 9.4582-8.8417 17.1155-17.9237 20.1174-1.3688.2623-1.8548-.5716-1.8548-1.2851 0-.8819.0309-3.7648.0309-7.347 0-2.4981-.863-4.1275-1.8306-4.958 4.6761-.5159 9.5372-1.9999 11.4658-7.4748.0386-.1071.075-.2164.1102-.3267.108-.3334.2039-.6809.2898-1.0437.0253-.1081.0508-.2174.0739-.3289.2523-1.1857.389-2.5244.389-4.0369 0-2.9222-1.048-5.311-2.7793-7.1862.281-.6742 1.2056-3.3975-.2645-7.0857 0 0-2.2636-.719-7.4179 2.7451-2.1578-.5934-4.4689-.8906-6.7633-.9015-2.2945.0109-4.6044.3082-6.7589.9015-5.1588-3.4641-7.4268-2.7451-7.4268-2.7451-1.4657 3.6882-.5411 6.4115-.2611 7.0857-1.727 1.8752-2.7828 4.2641-2.7828 7.1862 0 1.5114.1367 2.8501.3902 4.0357.0231.1115.0473.2208.0727.329.086.3628.183.7113.291 1.0447.0353.1103.0728.2196.1103.3267 1.9274 5.4651 6.7753 6.9699 11.4382 7.4956-.7726.6688-1.4724 1.8501-1.7149 3.581-1.5407.6841-5.4485 1.8666-7.8565-2.226 0 0-1.4283-2.5703-4.1393-2.7594 0 0-2.6351-.0339-.184 1.6272 0 0 1.7688.8241 2.9975 3.9178 0 0 1.5848 4.7788 9.0964 3.1593.0121 2.2369.0364 4.3461.0364 4.9843 0 .707-.4949 1.5364-1.8449 1.2883-9.0875-2.9996-16.0283-10.6579-17.9381-20.1205v-.001c-.0221-.1061-.0431-.2132-.0617-.3203-.1036-.5442-.1907-1.095-.2591-1.6501-.0143-.1093-.0264-.2186-.0386-.3289-.1101-.9803-.1663-1.9758-.1663-2.9844 0-14.7867 12.0907-26.7737 27.0003-26.7737 14.9108 0 27.0003 11.987 27.0003 26.7737z"/><path d="m39.9828 52.8135c-.195-.0918-.4067-.0535-.465.0831-.0629.1333.0463.3147.2425.4021.1929.0918.4033.0525.4629-.0808.0682-.1334-.0442-.3169-.2404-.4044z"/><path d="m41.2425 53.8706c-.1774-.1857-.421-.2415-.5532-.1235-.1311.1202-.0981.3704.0783.5563.1708.1869.4231.2426.5521.1245.1345-.1202.0991-.3683-.0772-.5573z"/><path d="m42.387 55.322c-.1697-.236-.4365-.3387-.6029-.225-.1697.1147-.1697.3999-.0044.6381.1674.2383.4374.3454.6039.2306.1686-.1158.1686-.4021.0034-.6437z"/><path d="m43.6907 56.7749c-.2326-.2196-.55-.2645-.6998-.1027-.1477.1617-.0827.4689.1531.6841.2314.2208.5467.2645.6943.1027.1577-.1607.0861-.4688-.1476-.6841z"/><path d="m45.4164 57.7742c-.3086-.0951-.6138.0044-.6767.2152-.0617.212.1378.4579.443.5497.3064.0885.6094-.0066.6755-.2163.063-.2131-.1364-.4568-.4418-.5486z"/><path d="m47.4866 58.0921c-.323.0054-.5764.1857-.5764.4087.0032.2174.2645.3967.5873.3891.3208-.0033.5808-.1869.573-.4076.0001-.2186-.2633-.3968-.5839-.3902z"/><path d="m50.1204 58.134c-.0408-.2196-.3272-.3486-.6457-.294-.3141.0568-.5411.2786-.5014.4994.0396.2132.3294.3464.6435.2896.3185-.059.5412-.2797.5036-.495z"/></g></svg>

<svg width="113" height="83" viewBox="0 0 113 83" fill="none" xmlns="http://www.w3.org/2000/svg">
<path d="M84.0006 41.5485C84.0006 42.5571 83.9444 43.5526 83.8342 44.5329C83.822 44.6422 83.8099 44.7525 83.7967 44.8618C83.7273 45.4169 83.6402 45.9677 83.5377 46.5119C83.5179 46.6201 83.4969 46.7272 83.4748 46.8332C81.566 56.2914 74.6331 63.9487 65.5511 66.9506C64.1823 67.2129 63.6963 66.379 63.6963 65.6655C63.6963 64.7836 63.7272 61.9007 63.7272 58.3185C63.7272 55.8204 62.8642 54.191 61.8966 53.3605C66.5727 52.8446 71.4338 51.3606 73.3624 45.8857C73.401 45.7786 73.4374 45.6693 73.4726 45.559C73.5806 45.2256 73.6765 44.8781 73.7624 44.5153C73.7877 44.4072 73.8132 44.2979 73.8363 44.1864C74.0886 43.0007 74.2253 41.662 74.2253 40.1495C74.2253 37.2273 73.1773 34.8385 71.446 32.9633C71.727 32.2891 72.6516 29.5658 71.1815 25.8776C71.1815 25.8776 68.9179 25.1586 63.7636 28.6227C61.6058 28.0293 59.2947 27.7321 57.0003 27.7212C54.7058 27.7321 52.3959 28.0294 50.2414 28.6227C45.0826 25.1586 42.8146 25.8776 42.8146 25.8776C41.3489 29.5658 42.2735 32.2891 42.5535 32.9633C40.8265 34.8385 39.7707 37.2274 39.7707 40.1495C39.7707 41.6609 39.9074 42.9996 40.1609 44.1852C40.184 44.2967 40.2082 44.406 40.2336 44.5142C40.3196 44.877 40.4166 45.2255 40.5246 45.5589C40.5599 45.6692 40.5974 45.7785 40.6349 45.8856C42.5623 51.3507 47.4102 52.8555 52.0731 53.3812C51.3005 54.05 50.6007 55.2313 50.3582 56.9622C48.8175 57.6463 44.9097 58.8288 42.5017 54.7362C42.5017 54.7362 41.0734 52.1659 38.3624 51.9768C38.3624 51.9768 35.7273 51.9429 38.1784 53.604C38.1784 53.604 39.9472 54.4281 41.1759 57.5218C41.1759 57.5218 42.7607 62.3006 50.2723 60.6811C50.2844 62.918 50.3087 65.0272 50.3087 65.6654C50.3087 66.3724 49.8138 67.2018 48.4638 66.9537C39.3763 63.9541 32.4355 56.2958 30.5257 46.8332V46.8322C30.5036 46.7261 30.4826 46.619 30.464 46.5119C30.3604 45.9677 30.2733 45.4169 30.2049 44.8618C30.1906 44.7525 30.1785 44.6432 30.1663 44.5329C30.0562 43.5526 30 42.5571 30 41.5485C30 26.7618 42.0907 14.7748 57.0003 14.7748C71.9111 14.7748 84.0006 26.7618 84.0006 41.5485Z" fill="#222123"/>
<path d="M39.9828 52.8135C39.7878 52.7217 39.5761 52.76 39.5178 52.8966C39.4549 53.0299 39.5641 53.2113 39.7603 53.2987C39.9532 53.3905 40.1636 53.3512 40.2232 53.2179C40.2914 53.0845 40.179 52.901 39.9828 52.8135Z" fill="#222123"/>
<path d="M41.2425 53.8706C41.0651 53.6849 40.8215 53.6291 40.6893 53.7471C40.5582 53.8673 40.5912 54.1175 40.7676 54.3034C40.9384 54.4903 41.1907 54.546 41.3197 54.4279C41.4542 54.3077 41.4188 54.0596 41.2425 53.8706Z" fill="#222123"/>
<path d="M42.387 55.322C42.2173 55.086 41.9505 54.9833 41.7841 55.097C41.6144 55.2117 41.6144 55.4969 41.7797 55.7351C41.9471 55.9734 42.2171 56.0805 42.3836 55.9657C42.5522 55.8499 42.5522 55.5636 42.387 55.322Z" fill="#222123"/>
<path d="M43.6907 56.7749C43.4581 56.5553 43.1407 56.5104 42.9909 56.6722C42.8432 56.8339 42.9082 57.1411 43.144 57.3563C43.3754 57.5771 43.6907 57.6208 43.8383 57.459C43.996 57.2983 43.9244 56.9902 43.6907 56.7749Z" fill="#222123"/>
<path d="M45.4164 57.7742C45.1078 57.6791 44.8026 57.7786 44.7397 57.9894C44.678 58.2014 44.8775 58.4473 45.1827 58.5391C45.4891 58.6276 45.7921 58.5325 45.8582 58.3228C45.9212 58.1097 45.7218 57.866 45.4164 57.7742Z" fill="#222123"/>
<path d="M47.4866 58.0921C47.1636 58.0975 46.9102 58.2778 46.9102 58.5008C46.9134 58.7182 47.1747 58.8975 47.4975 58.8899C47.8183 58.8866 48.0783 58.703 48.0705 58.4823C48.0706 58.2637 47.8072 58.0855 47.4866 58.0921Z" fill="#222123"/>
<path d="M50.1204 58.134C50.0796 57.9144 49.7932 57.7854 49.4747 57.84C49.1606 57.8968 48.9336 58.1186 48.9733 58.3394C49.0129 58.5526 49.3027 58.6858 49.6168 58.629C49.9353 58.57 50.158 58.3493 50.1204 58.134Z" fill="#222123"/>
</svg>
